icons/lines/moneys.svg

<svg xmlns="http://www.w3.org/2000/svg" width="24" height="24" viewBox="0 0 24 24" fill="none" stroke="currentColor" stroke-width="2" stroke-linecap="round" stroke-linejoin="round" >
  <path d="M19.3 7.91998V13.07C19.3 16.15 17.54 17.47 14.9 17.47H6.10995C5.65995 17.47 5.22996 17.43 4.82996 17.34C4.57996 17.3 4.33996 17.23 4.11996 17.15C2.61996 16.59 1.70996 15.29 1.70996 13.07V7.91998C1.70996 4.83998 3.46995 3.52002 6.10995 3.52002H14.9C17.14 3.52002 18.75 4.47001 19.18 6.64001C19.25 7.04001 19.3 7.44998 19.3 7.91998Z" stroke-miterlimit="10"/>
  <path d="M22.3011 10.9201V16.0701C22.3011 19.1501 20.5411 20.4701 17.9011 20.4701H9.11105C8.37105 20.4701 7.70106 20.3701 7.12106 20.1501C5.93106 19.7101 5.12105 18.8001 4.83105 17.3401C5.23105 17.4301 5.66105 17.4701 6.11105 17.4701H14.9011C17.5411 17.4701 19.3011 16.1501 19.3011 13.0701V7.9201C19.3011 7.4501 19.2611 7.03014 19.1811 6.64014C21.0811 7.04014 22.3011 8.38011 22.3011 10.9201Z" stroke-miterlimit="10"/>
  <path d="M10.4984 13.1399C11.9564 13.1399 13.1384 11.9579 13.1384 10.4999C13.1384 9.04185 11.9564 7.85986 10.4984 7.85986C9.04038 7.85986 7.8584 9.04185 7.8584 10.4999C7.8584 11.9579 9.04038 13.1399 10.4984 13.1399Z" stroke-miterlimit="10"/>
  <path d="M4.77979 8.29999V12.7" stroke-miterlimit="10"/>
  <path d="M16.2217 8.30029V12.7003" stroke-miterlimit="10"/>
  </svg>

<svg xmlns="http://www.w3.org/2000/svg" width="24" height="24" viewBox="0 0 24 24" fill="none" stroke="currentColor" stroke-width="2" stroke-linecap="round" stroke-linejoin="round">
  <path d="M16.222 8.3v4.4" />
  <path d="M22.301 10.92c0-2.54-1.22-3.88-3.12-4.28a6.3 6.3 0 0 1 .12 1.28v5.15c0 3.08-1.76 4.4-4.4 4.4H6.11a6 6 0 0 1-1.279-.13c.29 1.46 1.1 2.37 2.29 2.81.58.22 1.25.32 1.99.32h8.79c2.64 0 4.4-1.32 4.4-4.4z" />
  <path d="M4.78 8.3v4.4" />
  <path d="M6.11 17.47a6 6 0 0 1-1.28-.13 4 4 0 0 1-.71-.19c-1.5-.56-2.41-1.86-2.41-4.08V7.92c0-3.08 1.76-4.4 4.4-4.4h8.79c2.24 0 3.85.95 4.28 3.12a7 7 0 0 1 .12 1.28v5.15c0 3.08-1.76 4.4-4.4 4.4" />
  <circle cx="10.498" cy="10.5" r="2.64" />
</svg>
